icon-svg/homarr.svg

<?xml version="1.0" encoding="UTF-8" standalone="no"?>
<svg
   width="24"
   height="24"
   viewBox="0 0 24 24"
   version="1.1"
   xmlns="http://www.w3.org/2000/svg"
   xmlns:svg="http://www.w3.org/2000/svg">
  <path
     style="fill:#44739e"
     d="M 8.6138,5.2388 A 2.8133,2.8133 0 0 0 6.2804,6.4824 C 6.4983,6.6228 6.7063,6.777 6.9042,6.942 A 2.0396,2.0396 0 0 1 8.6138,6.0119 C 9.7388,6.0119 10.655,6.9271 10.655,8.0521 V 10.664 C 10.723,10.64 10.795,10.625 10.871,10.625 11.101,10.625 11.303,10.739 11.428,10.913 V 8.0521 A 2.8167,2.8167 0 0 0 8.6138,5.2388 Z M 15.386,5.2388 A 2.8171,2.8171 0 0 0 12.572,8.0521 V 10.913 C 12.696,10.739 12.898,10.625 13.128,10.625 L 13.13,10.625 C 13.205,10.625 13.277,10.64 13.346,10.664 V 8.0521 C 13.346,6.9271 14.261,6.0119 15.386,6.0119 16.102,6.0119 16.732,6.3825 17.096,6.942 17.294,6.777 17.502,6.6228 17.72,6.4824 A 2.8125,2.8125 0 0 0 15.386,5.2388 Z M 20.516,6.4671 A 5.4112,5.4112 0 0 0 18.115,7.3799 C 17.868,7.5495 17.636,7.7386 17.422,7.945 A 5.4325,5.4325 0 0 0 15.745,11.875 5.4354,5.4354 0 0 0 18.093,16.355 L 18.455,14.878 C 20.327,14.321 21.742,12.702 22,10.719 H 19.475 L 20.517,6.4695 Z M 3.484,6.4679 C 3.484,6.4679 3.483,6.4675 3.483,6.4687 L 4.5252,10.719 H 2 C 2.257,12.703 3.672,14.322 5.5441,14.878 L 5.9071,16.355 A 5.4637,5.4637 0 0 0 7.2133,15.082 C 7.8675,14.182 8.255,13.072 8.255,11.875 8.255,10.33 7.6108,8.937 6.5783,7.945 A 5.4488,5.4488 0 0 0 5.8851,7.3799 5.4208,5.4208 0 0 0 3.484,6.4679 Z M 10.871,12.302 A 0.68483,0.68483 0 0 0 10.871,13.672 0.68483,0.68483 0 0 0 10.872,12.302 Z M 13.13,12.303 A 0.68458,0.68458 0 0 0 13.13,13.672 0.68458,0.68458 0 0 0 13.13,12.303 Z M 11.934,14.535 C 11.436,14.537 10.93,14.596 10.424,14.717 V 14.717 A 6.5167,6.5167 0 0 0 5.8631,18.704 L 7.6838,18.715 18.054,18.761 18.055,18.759 C 17.093,16.195 14.626,14.526 11.934,14.535 Z"
   />
</svg>

<svg xmlns="http://www.w3.org/2000/svg" viewBox="0 0 24 24"><path fill="#44739e" d="M8.614 5.239A2.81 2.81 0 0 0 6.28 6.482q.327.211.624.46a2.04 2.04 0 0 1 1.71-.93c1.125 0 2.041.915 2.041 2.04v2.612a.7.7 0 0 1 .216-.039c.23 0 .432.114.557.288v-2.86a2.817 2.817 0 0 0-2.814-2.814m6.772 0a2.817 2.817 0 0 0-2.814 2.813v2.861a.68.68 0 0 1 .556-.288h.002q.112.002.216.039V8.052a2.038 2.038 0 0 1 3.75-1.11q.297-.249.624-.46a2.81 2.81 0 0 0-2.334-1.243m5.13 1.228a5.4 5.4 0 0 0-2.401.913q-.371.255-.693.565a5.43 5.43 0 0 0-1.677 3.93 5.44 5.44 0 0 0 2.348 4.48l.362-1.477A5.03 5.03 0 0 0 22 10.719h-2.525l1.042-4.25Zm-17.032 0-.001.002 1.042 4.25H2a5.02 5.02 0 0 0 3.544 4.159l.363 1.477a5.5 5.5 0 0 0 1.306-1.273 5.44 5.44 0 0 0 1.042-3.207 5.43 5.43 0 0 0-1.677-3.93 5.5 5.5 0 0 0-.693-.565 5.4 5.4 0 0 0-2.401-.912m7.387 5.835a.685.685 0 0 0 0 1.37.685.685 0 0 0 .001-1.37Zm2.259.001a.685.685 0 0 0 0 1.369.685.685 0 0 0 0-1.369m-1.196 2.232a6.6 6.6 0 0 0-1.51.182 6.52 6.52 0 0 0-4.56 3.987l1.82.011 10.37.046.001-.002a6.53 6.53 0 0 0-6.121-4.224"/></svg>
